X:1
T:Prelude in C Major (after Bach BWV 846)
C:Bach, J.S.
M:4/4
L:1/16
Q:1/4=72
K:C
|:EGCE EGCE|EACE EACE|DADE DADE|DGBD DGBD|
CGCE CGCE|CFAC CFAC|BDGB BDGB|CEGC CEGC|
EGCE EGCE|EACE EACE|DADE DADE|DGBD DGBD|
CGCE CGCE|CFAC CFAC|BDGB BDGB|C8:|

